src/assets/img/icon-garbage.svg

<svg width="56" height="56" viewBox="0 0 56 56" fill="none" xmlns="http://www.w3.org/2000/svg">
<g clip-path="url(#clip0_107_1313)">
<path d="M40.4274 20.9547L40.7038 20.0617C40.2394 18.9886 39.1717 18.2376 37.9279 18.2376H35.2826C33.7161 18.2376 32.428 19.4288 32.2744 20.9547H40.4274Z" fill="#FAC600"/>
<path d="M35.5907 20.9548V16.0339C35.5907 15.6958 35.3166 15.4217 34.9785 15.4217H27.5102C27.1722 15.4217 26.8981 15.6958 26.8981 16.0339V20.9548H35.5907Z" fill="#FE9901"/>
<path d="M29.9167 20.9548V16.0339C29.9167 15.6958 30.1908 15.4217 30.5289 15.4217H27.5102C27.1722 15.4217 26.8981 15.6958 26.8981 16.0339V20.9548H29.9167Z" fill="#FB8801"/>
<path d="M15.8878 20.9547H23.4164C23.1852 18.9431 21.4774 17.3806 19.4038 17.3806C17.6567 17.3806 16.1689 18.4895 15.6053 20.0419L15.8878 20.9547Z" fill="#80D261"/>
<path d="M15.8878 20.9547H17.8553C18.0386 19.36 19.15 18.0482 20.6361 17.5726C20.2476 17.4483 19.8336 17.3806 19.4039 17.3806C17.6568 17.3806 16.169 18.4895 15.6054 20.0419L15.8878 20.9547Z" fill="#68CA44"/>
<path d="M28.5531 20.9547C28.0418 19.3097 26.5076 18.1151 24.6944 18.1151C22.8812 18.1151 21.3469 19.3096 20.8356 20.9547H28.5531Z" fill="#00A7D3"/>
<path d="M23.5884 20.9547C23.9635 19.7483 24.8883 18.7841 26.0704 18.3558C25.6409 18.2002 25.1776 18.1151 24.6944 18.1151C22.8811 18.1151 21.3468 19.3096 20.8355 20.9547H23.5884Z" fill="#0096D3"/>
<path d="M14.869 5.96664C15.1244 5.96664 15.3649 6.03117 15.5756 6.14416C15.787 5.89992 15.9576 5.5882 16.0567 5.22967C16.3331 4.22999 15.9551 3.25327 15.2126 3.04797C14.47 2.84267 13.644 3.48656 13.3676 4.48625C13.2184 5.02602 13.2613 5.55802 13.448 5.96664H14.869Z" fill="#D8ECFE"/>
<path d="M12.888 5.96664H13.7038C13.8918 5.40336 13.6746 4.64987 13.1037 4.07894C12.3703 3.34558 11.3342 3.19267 10.7894 3.73747C10.2446 4.28227 10.3975 5.31837 11.1309 6.05173C11.3194 6.2403 11.528 6.3897 11.743 6.49952C12.0185 6.17412 12.4293 5.96664 12.888 5.96664Z" fill="#C4E2FF"/>
<path d="M12.888 9.07655H14.8691C15.7544 9.07655 16.4787 8.35226 16.4787 7.46698C16.4787 6.5817 15.7544 5.85742 14.8691 5.85742H12.888C12.0027 5.85742 11.2784 6.5817 11.2784 7.46698C11.2783 8.35226 12.0027 9.07655 12.888 9.07655Z" fill="#5A5A5A"/>
<path d="M13.1249 7.46679C13.1249 6.58151 13.8492 5.85712 14.7346 5.85712H12.888C12.0027 5.85712 11.2784 6.58151 11.2784 7.46679C11.2784 8.35207 12.0027 9.07646 12.888 9.07646H14.7346C13.8493 9.07646 13.1249 8.35218 13.1249 7.46679Z" fill="#444444"/>
<path d="M46.0362 25.712C46.256 25.5855 46.51 25.512 46.7814 25.512H48.2327C48.3937 25.1134 48.4237 24.6102 48.2828 24.1004C48.0064 23.1008 47.1804 22.4569 46.4378 22.6622C45.6953 22.8675 45.3173 23.8442 45.5937 24.8439C45.6866 25.1803 45.8428 25.475 46.0362 25.712Z" fill="#D8ECFE"/>
<path d="M50.8609 23.3518C50.3161 22.807 49.28 22.9599 48.5467 23.6933C47.9989 24.241 47.7754 24.9575 47.9241 25.5122H48.7624C49.2433 25.5122 49.6711 25.7405 49.9458 26.0936C50.1472 25.9859 50.3423 25.8434 50.5196 25.6661C51.2528 24.9327 51.4057 23.8965 50.8609 23.3518Z" fill="#C4E2FF"/>
<path d="M48.7625 28.622H46.7814C45.8962 28.622 45.1719 27.8977 45.1719 27.0125C45.1719 26.1272 45.8962 25.4029 46.7814 25.4029H48.7625C49.6478 25.4029 50.3721 26.1272 50.3721 27.0125C50.3721 27.8976 49.6478 28.622 48.7625 28.622Z" fill="#5A5A5A"/>
<path d="M47.0311 27.0123C47.0311 26.127 47.7554 25.4026 48.6408 25.4026H46.7814C45.8961 25.4026 45.1718 26.1269 45.1718 27.0123C45.1718 27.8976 45.896 28.6219 46.7814 28.6219H48.6408C47.7555 28.622 47.0311 27.8976 47.0311 27.0123Z" fill="#444444"/>
<path d="M55.6303 29.1833C55.2519 28.9346 54.7432 29.0396 54.4942 29.4181L50.7934 35.0475H41.6625V43.9352H44.7117C44.989 43.9352 45.2146 44.1608 45.2146 44.438V51.4591H52.0561V36.1132L55.865 30.3194C56.1139 29.9407 56.0088 29.4321 55.6303 29.1833Z" fill="#FFE5C2"/>
<path d="M44.3539 43.8257V35.8677C44.3539 35.4146 44.721 35.0474 45.1742 35.0474H41.6625V43.8257H44.3539Z" fill="#FED2A4"/>
<path d="M32.9454 51.459V44.4379C32.9454 44.1606 33.171 43.9351 33.4482 43.9351H41.7719V21.7899L44.5772 12.726C44.7112 12.2932 44.4689 11.8339 44.0361 11.6999C43.6028 11.5659 43.1438 11.8082 43.0099 12.241L40.3468 20.8455H15.9684L13.3054 12.241C13.1714 11.8082 12.7118 11.5659 12.2791 11.6999C11.8463 11.8339 11.604 12.2932 11.738 12.726L14.5433 21.7899V51.459H32.9454Z" fill="#FFB392"/>
<path d="M14.5433 21.7899V29.6748H16.999C17.2515 29.6748 17.4094 29.9482 17.2831 30.167L15.3878 33.4498C16.7419 33.4603 18.0274 33.8309 19.139 34.4822V20.8455H15.9684L13.3054 12.241C13.1714 11.8082 12.7118 11.5659 12.2791 11.6999C11.8463 11.8339 11.604 12.2932 11.738 12.726L14.5433 21.7899Z" fill="#FFA381"/>
<path d="M13.5064 33.5579C13.5079 33.5579 13.5093 33.5578 13.5108 33.5578H15.3253L17.2831 30.1669C17.4094 29.9481 17.2515 29.6747 16.9989 29.6747H11.8327C11.5802 29.6747 11.4222 29.9481 11.5485 30.1669L13.5064 33.5579Z" fill="#838383"/>
<path d="M13.5063 33.5579C13.5078 33.5579 13.5093 33.5578 13.5108 33.5578H15.3253L15.541 33.1842L13.799 30.1669C13.6727 29.9481 13.8306 29.6747 14.0832 29.6747H11.8327C11.58 29.6747 11.4222 29.9481 11.5485 30.1669L13.5063 33.5579Z" fill="#5A5A5A"/>
<path d="M4.46584 51.459H18.7414L18.5822 51.2775C18.0735 50.6973 17.8891 49.9071 18.089 49.1637L20.3336 40.8177C20.6538 39.6276 21.2995 38.591 22.1579 37.7915C20.9347 35.1772 18.2922 33.4485 15.3288 33.4485H13.5108C10.1001 33.4485 7.11392 35.7377 6.2281 39.0314L3.63667 48.6664C3.34956 49.734 3.72253 50.79 4.46584 51.459Z" fill="#5A5A5A"/>
<path d="M4.46585 51.459H8.16119C7.41788 50.7899 7.0448 49.734 7.33202 48.6664L9.92344 39.0313C10.7269 36.0437 13.2586 33.8828 16.2675 33.5068C15.9591 33.4683 15.6457 33.4484 15.3286 33.4484H13.5107C10.1 33.4484 7.11381 35.7375 6.22799 39.0313L3.63667 48.6664C3.34956 49.734 3.72253 50.7899 4.46585 51.459Z" fill="#444444"/>
<path d="M26.5409 36.0627H28.0996L29.7659 33.1768C29.8922 32.958 29.7342 32.6846 29.4817 32.6846H25.1589C24.9063 32.6846 24.7484 32.958 24.8747 33.1768L26.5409 36.0627Z" fill="#838383"/>
<path d="M26.5409 36.0627H28.0996L28.3291 35.6653L26.8923 33.1768C26.766 32.958 26.9239 32.6846 27.1765 32.6846H25.1588C24.9062 32.6846 24.7483 32.958 24.8747 33.1768L26.5409 36.0627Z" fill="#5A5A5A"/>
<path d="M32.9454 51.459V44.4379C32.9454 44.1606 33.171 43.9351 33.4482 43.9351H35.2701L34.4173 40.7808C33.647 37.9319 31.0623 35.9533 28.1111 35.9533H26.5365C23.5821 35.9533 20.9954 37.9362 20.2282 40.7892L17.9835 49.1352C17.748 50.0108 18.0251 50.8773 18.6019 51.459H32.9454Z" fill="#5A5A5A"/>
<path d="M18.6017 51.459H22.2492C21.6725 50.8773 21.3953 50.0108 21.6308 49.1352L23.8755 40.7892C24.5515 38.2757 26.6398 36.4384 29.1474 36.0365C28.8087 35.9823 28.4626 35.9533 28.111 35.9533H26.5363C23.582 35.9533 20.9953 37.9362 20.228 40.7892L17.9833 49.1352C17.7478 50.0108 18.0251 50.8773 18.6017 51.459Z" fill="#444444"/>
<path d="M45.3239 51.459V44.4379C45.3239 44.0998 45.0498 43.8257 44.7117 43.8257H33.448C33.11 43.8257 32.8359 44.0998 32.8359 44.4379V51.459H45.3239Z" fill="#FD4755"/>
<path d="M36.0745 51.459V44.4379C36.0745 44.0998 36.3486 43.8257 36.6867 43.8257H33.4482C33.1101 43.8257 32.836 44.0998 32.836 44.4379V51.459H36.0745Z" fill="#FB2B3A"/>
<path d="M53.2207 52.9903H1.55475C1.10161 52.9903 0.734436 52.623 0.734436 52.17C0.734436 51.717 1.10161 51.3497 1.55475 51.3497H53.2207C53.6738 51.3497 54.041 51.717 54.041 52.17C54.041 52.623 53.6738 52.9903 53.2207 52.9903Z" fill="#838383"/>
<path d="M10.6148 25.7844C10.1617 25.7844 9.79453 25.4172 9.79453 24.9641V24.5266C9.79453 24.0736 10.1617 23.7063 10.6148 23.7063C11.068 23.7063 11.4352 24.0736 11.4352 24.5266V24.9641C11.4352 25.4172 11.0679 25.7844 10.6148 25.7844ZM10.6148 22.6126C10.1617 22.6126 9.79453 22.2453 9.79453 21.7922V21.3547C9.79453 20.9017 10.1617 20.5344 10.6148 20.5344C11.068 20.5344 11.4352 20.9017 11.4352 21.3547V21.7922C11.4352 22.2453 11.0679 22.6126 10.6148 22.6126ZM10.1812 19.5104C9.88291 19.5104 9.59536 19.3472 9.45011 19.0633C9.39783 18.9612 9.33909 18.8606 9.27566 18.7644C9.02606 18.3863 9.13019 17.8775 9.5083 17.6279C9.88608 17.3782 10.3951 17.4823 10.6448 17.8604C10.7416 18.0071 10.8312 18.1604 10.9109 18.3164C11.1172 18.7198 10.9574 19.2139 10.5539 19.4202C10.4344 19.4814 10.3068 19.5104 10.1812 19.5104ZM7.81834 17.5216C7.73817 17.5216 7.65658 17.5098 7.57575 17.4847C7.46539 17.4506 7.35219 17.4224 7.2392 17.4006C6.79437 17.3152 6.503 16.8852 6.58842 16.4403C6.67384 15.9954 7.10248 15.704 7.54873 15.7894C7.72067 15.8224 7.89283 15.8654 8.0605 15.9173C8.4933 16.0512 8.73567 16.5105 8.6018 16.9433C8.49297 17.2955 8.16867 17.5216 7.81834 17.5216ZM4.66791 17.3011C4.63028 17.3011 4.59233 17.2985 4.55394 17.2932C4.38331 17.2695 4.21203 17.237 4.04469 17.1966C3.60434 17.0903 3.33353 16.6471 3.43995 16.2067C3.54627 15.7663 3.98945 15.4954 4.42991 15.6018C4.54486 15.6296 4.66266 15.6519 4.7798 15.6682C5.22856 15.7306 5.54181 16.1449 5.47936 16.5936C5.42227 17.0039 5.07073 17.3011 4.66791 17.3011ZM1.93419 15.8272C1.70658 15.8272 1.48017 15.733 1.31797 15.5487C1.20433 15.4195 1.09594 15.2836 0.99575 15.1444C0.730844 14.7768 0.814188 14.2642 1.1818 13.9994C1.5493 13.7346 2.06194 13.8178 2.32684 14.1854C2.39608 14.2816 2.471 14.3756 2.54975 14.465C2.849 14.8052 2.81597 15.3235 2.4757 15.6227C2.31984 15.7598 2.12658 15.8272 1.93419 15.8272ZM0.820422 12.929C0.371875 12.929 0.00579687 12.5682 0.0004375 12.1185L0 12.0549C0.000109375 11.9034 0.0065625 11.7515 0.0191406 11.6027C0.0574219 11.1513 0.455 10.815 0.905625 10.8544C1.35712 10.8926 1.69203 11.2895 1.65397 11.7409C1.64522 11.8444 1.64073 11.9502 1.64062 12.0556L1.64084 12.0989C1.64631 12.5519 1.28341 12.9236 0.830484 12.9289C0.827203 12.929 0.823703 12.929 0.820422 12.929ZM1.86331 10.005C1.67748 10.005 1.49045 9.94212 1.33689 9.81349C0.989625 9.52245 0.944016 9.0051 1.23506 8.65784C1.34542 8.52615 1.46366 8.39829 1.58659 8.27787C1.90991 7.96079 2.42933 7.96582 2.74652 8.28957C3.06359 8.6131 3.05845 9.13253 2.73481 9.4496C2.65016 9.53262 2.56856 9.62078 2.49244 9.71167C2.33023 9.90526 2.09759 10.005 1.86331 10.005ZM4.5593 8.46578C4.16445 8.46578 3.81653 8.18009 3.75069 7.7777C3.67752 7.33057 3.9807 6.90893 4.42772 6.83576C4.59736 6.80809 4.77006 6.78829 4.94123 6.77713C5.39328 6.74738 5.78364 7.09038 5.81317 7.54243C5.84259 7.99448 5.49992 8.38495 5.04787 8.41437C4.92942 8.42203 4.80988 8.4357 4.69263 8.45495C4.64778 8.46217 4.60316 8.46578 4.5593 8.46578ZM8.16616 8.40649H7.72866C7.27552 8.40649 6.90834 8.03921 6.90834 7.58618C6.90834 7.13315 7.27552 6.76587 7.72866 6.76587H8.16616C8.6193 6.76587 8.98647 7.13315 8.98647 7.58618C8.98647 8.03921 8.6193 8.40649 8.16616 8.40649Z" fill="#C4E2FF"/>
</g>
<defs>
<clipPath id="clip0_107_1313">
<rect width="56" height="56" fill="white"/>
</clipPath>
</defs>
</svg>

<svg xmlns="http://www.w3.org/2000/svg" width="56" height="56" fill="none"><g clip-path="url(#a)"><path fill="#FAC600" d="m40.43 20.95.27-.89a3.02 3.02 0 0 0-2.77-1.82h-2.65a3.02 3.02 0 0 0-3 2.71h8.15Z"/><path fill="#FE9901" d="M35.6 20.95v-4.92a.61.61 0 0 0-.62-.6H27.5a.61.61 0 0 0-.61.6v4.92h8.7Z"/><path fill="#FB8801" d="M29.92 20.95v-4.92c0-.33.27-.6.6-.6h-3.01a.61.61 0 0 0-.61.6v4.92h3.02Z"/><path fill="#80D261" d="M15.89 20.95h7.53a4.04 4.04 0 0 0-7.81-.9l.28.9Z"/><path fill="#68CA44" d="M15.89 20.95h1.97c.18-1.59 1.29-2.9 2.78-3.38a4.04 4.04 0 0 0-5.03 2.47l.28.91Z"/><path fill="#00A7D3" d="M28.55 20.95a4.04 4.04 0 0 0-7.71 0h7.71Z"/><path fill="#0096D3" d="M23.59 20.95a4.05 4.05 0 0 1 2.48-2.6 4.03 4.03 0 0 0-5.23 2.6h2.75Z"/><path fill="#D8ECFE" d="M14.87 5.97c.25 0 .5.06.7.17.22-.24.39-.55.49-.91.27-1-.1-1.98-.85-2.18-.74-.2-1.57.44-1.84 1.44a2.2 2.2 0 0 0 .08 1.48h1.42Z"/><path fill="#C4E2FF" d="M12.89 5.97h.81c.2-.57-.03-1.32-.6-1.9-.73-.72-1.77-.88-2.31-.33-.55.54-.4 1.58.34 2.31.19.19.4.34.61.45a1.5 1.5 0 0 1 1.15-.53Z"/><path fill="#5A5A5A" d="M12.89 9.08h1.98c.88 0 1.6-.73 1.6-1.61 0-.89-.72-1.61-1.6-1.61h-1.98c-.89 0-1.61.72-1.61 1.6 0 .9.72 1.62 1.6 1.62Z"/><path fill="#444" d="M13.12 7.47c0-.89.73-1.61 1.61-1.61H12.9c-.89 0-1.61.72-1.61 1.6 0 .9.72 1.62 1.6 1.62h1.85c-.88 0-1.6-.73-1.6-1.61Z"/><path fill="#D8ECFE" d="M46.04 25.71c.22-.12.47-.2.74-.2h1.45c.16-.4.2-.9.05-1.41-.27-1-1.1-1.64-1.84-1.44-.74.2-1.12 1.18-.85 2.18.1.34.25.64.45.87Z"/><path fill="#C4E2FF" d="M50.86 23.35c-.54-.54-1.58-.39-2.31.34-.55.55-.77 1.27-.63 1.82h.84c.48 0 .91.23 1.19.58.2-.1.4-.25.57-.42.73-.74.89-1.77.34-2.32Z"/><path fill="#5A5A5A" d="M48.76 28.62h-1.98c-.88 0-1.6-.72-1.6-1.6 0-.9.72-1.62 1.6-1.62h1.98c.89 0 1.61.73 1.61 1.61 0 .89-.72 1.61-1.6 1.61Z"/><path fill="#444" d="M47.03 27.01c0-.88.73-1.6 1.61-1.6h-1.86c-.88 0-1.6.72-1.6 1.6 0 .89.72 1.61 1.6 1.61h1.86c-.88 0-1.6-.72-1.6-1.6Z"/><path fill="#FFE5C2" d="M55.63 29.18a.82.82 0 0 0-1.14.24l-3.7 5.63h-9.13v8.89h3.05c.28 0 .5.22.5.5v7.02h6.85V36.1l3.8-5.8a.82.82 0 0 0-.23-1.13Z"/><path fill="#FED2A4" d="M44.35 43.83v-7.96c0-.46.37-.82.82-.82h-3.5v8.78h2.68Z"/><path fill="#FFB392" d="M32.95 51.46v-7.02c0-.28.22-.5.5-.5h8.32V21.79l2.8-9.06a.82.82 0 1 0-1.56-.49l-2.66 8.6H15.97l-2.66-8.6a.82.82 0 0 0-1.57.49l2.8 9.06v29.67h18.4Z"/><path fill="#FFA381" d="M14.54 21.79v7.88H17c.25 0 .4.28.28.5l-1.9 3.28c1.36.01 2.65.38 3.76 1.03V20.85h-3.17l-2.66-8.6a.82.82 0 0 0-1.57.48l2.8 9.06Z"/><path fill="#838383" d="M13.5 33.56h1.83l1.95-3.4a.33.33 0 0 0-.28-.49h-5.17a.33.33 0 0 0-.28.5l1.96 3.39Z"/><path fill="#5A5A5A" d="M13.5 33.56h1.83l.21-.38-1.74-3.01a.33.33 0 0 1 .28-.5h-2.25a.33.33 0 0 0-.28.5l1.96 3.39Z"/><path fill="#5A5A5A" d="M4.47 51.46h14.27l-.16-.18a2.3 2.3 0 0 1-.5-2.12l2.25-8.34a6.4 6.4 0 0 1 1.83-3.03 7.54 7.54 0 0 0-6.83-4.34H13.5a7.54 7.54 0 0 0-7.28 5.58l-2.6 9.64a2.77 2.77 0 0 0 .84 2.79Z"/><path fill="#444" d="M4.47 51.46h3.7a2.77 2.77 0 0 1-.84-2.8l2.6-9.63a7.54 7.54 0 0 1 6.34-5.52c-.31-.04-.62-.06-.94-.06H13.5a7.54 7.54 0 0 0-7.28 5.58l-2.6 9.64a2.77 2.77 0 0 0 .84 2.79Z"/><path fill="#838383" d="M26.54 36.06h1.56l1.67-2.88a.33.33 0 0 0-.29-.5h-4.32a.33.33 0 0 0-.29.5l1.67 2.88Z"/><path fill="#5A5A5A" d="M26.54 36.06h1.56l.23-.4-1.44-2.48a.33.33 0 0 1 .29-.5h-2.02a.33.33 0 0 0-.29.5l1.67 2.88Z"/><path fill="#5A5A5A" d="M32.95 51.46v-7.02c0-.28.22-.5.5-.5h1.82l-.85-3.16a6.53 6.53 0 0 0-6.3-4.83h-1.58a6.53 6.53 0 0 0-6.31 4.84l-2.25 8.35a2.4 2.4 0 0 0 .62 2.32h14.35Z"/><path fill="#444" d="M18.6 51.46h3.65a2.4 2.4 0 0 1-.62-2.32l2.25-8.35a6.53 6.53 0 0 1 5.27-4.75 6.55 6.55 0 0 0-1.04-.09h-1.57a6.53 6.53 0 0 0-6.31 4.84l-2.25 8.35a2.4 2.4 0 0 0 .62 2.32Z"/><path fill="#FD4755" d="M45.32 51.46v-7.02a.61.61 0 0 0-.6-.61H33.44a.61.61 0 0 0-.61.6v7.03h12.48Z"/><path fill="#FB2B3A" d="M36.07 51.46v-7.02c0-.34.28-.61.62-.61h-3.24a.61.61 0 0 0-.61.6v7.03h3.23Z"/><path fill="#838383" d="M53.22 52.99H1.55a.82.82 0 1 1 0-1.64h51.67a.82.82 0 1 1 0 1.64Z"/><path fill="#C4E2FF" d="M10.61 25.78a.82.82 0 0 1-.82-.82v-.43a.82.82 0 1 1 1.65 0v.43c0 .46-.37.82-.83.82Zm0-3.17a.82.82 0 0 1-.82-.82v-.44a.82.82 0 1 1 1.65 0v.44c0 .46-.37.82-.83.82Zm-.43-3.1a.82.82 0 0 1-.73-.45l-.17-.3a.82.82 0 0 1 1.36-.9c.1.15.2.3.27.46a.82.82 0 0 1-.73 1.19Zm-2.36-1.99a.82.82 0 0 1-.24-.04 3.2 3.2 0 0 0-.34-.08.82.82 0 0 1 .3-1.61c.18.03.35.08.52.13a.82.82 0 0 1-.24 1.6Zm-3.15-.22h-.12a5.26 5.26 0 0 1-.5-.1.82.82 0 1 1 .38-1.6l.35.07a.82.82 0 0 1-.11 1.63Zm-2.74-1.47a.82.82 0 0 1-.61-.28 5.32 5.32 0 0 1-.32-.4.82.82 0 1 1 1.33-.96l.22.28a.82.82 0 0 1-.62 1.36Zm-1.11-2.9a.82.82 0 0 1-.82-.81v-.07c0-.15 0-.3.02-.45a.82.82 0 1 1 1.63.14v.36c0 .45-.37.82-.82.83H.82ZM1.86 10a.82.82 0 0 1-.62-1.35c.1-.13.22-.26.35-.38a.82.82 0 1 1 1.14 1.17l-.24.26c-.16.2-.4.3-.63.3Zm2.7-1.54a.82.82 0 0 1-.13-1.63l.51-.06a.82.82 0 1 1 .1 1.63 3.66 3.66 0 0 0-.48.06Zm3.6-.06h-.43a.82.82 0 1 1 0-1.64h.44a.82.82 0 1 1 0 1.64Z"/></g><defs><clipPath id="a"><path fill="#fff" d="M0 0h56v56H0z"/></clipPath></defs></svg>
